Data/Xmp/Raw-625.xmp
<x:xmpmeta xmlns:x="adobe:ns:meta/" x:xmptk="Adobe XMP Core 7.0-c000 1.000000, 0000/00/00-00:00:00        ">
 <rdf:RDF xmlns:rdf="http://www.w3.org/1999/02/22-rdf-syntax-ns#">
  <rdf:Description rdf:about=""
    xmlns:xmp="http://ns.adobe.com/xap/1.0/"
    xmlns:tiff="http://ns.adobe.com/tiff/1.0/"
    xmlns:exif="http://ns.adobe.com/exif/1.0/"
    xmlns:aux="http://ns.adobe.com/exif/1.0/aux/"
    xmlns:exifEX="http://cipa.jp/exif/1.0/"
    xmlns:photoshop="http://ns.adobe.com/photoshop/1.0/"
    xmlns:xmpMM="http://ns.adobe.com/xap/1.0/mm/"
    xmlns:stEvt="http://ns.adobe.com/xap/1.0/sType/ResourceEvent#"
    xmlns:dc="http://purl.org/dc/elements/1.1/"
    xmlns:crd="http://ns.adobe.com/camera-raw-defaults/1.0/"
    xmlns:xmpDM="http://ns.adobe.com/xmp/1.0/DynamicMedia/"
    xmlns:crs="http://ns.adobe.com/camera-raw-settings/1.0/"
   xmp:ModifyDate="2024-11-02T08:59:47.72+07:00"
   xmp:CreateDate="2024-11-02T08:59:47.72+07:00"
   xmp:MetadataDate="2024-12-09T13:08:18+07:00"
   tiff:Make="Canon"
   tiff:Model="Canon EOS RP"
   tiff:Orientation="1"
   tiff:ImageWidth="6240"
   tiff:ImageLength="4160"
   exif:ExifVersion="0231"
   exif:ExposureTime="1/4000"
   exif:ShutterSpeedValue="11965784/1000000"
   exif:FNumber="2/1"
   exif:ApertureValue="2/1"
   exif:ExposureProgram="1"
   exif:SensitivityType="2"
   exif:RecommendedExposureIndex="100"
   exif:ExposureBiasValue="0/1"
   exif:MaxApertureValue="175/100"
   exif:MeteringMode="5"
   exif:FocalLength="85/1"
   exif:CustomRendered="0"
   exif:ExposureMode="1"
   exif:WhiteBalance="1"
   exif:SceneCaptureType="0"
   exif:FocalPlaneXResolution="56907257/32768"
   exif:FocalPlaneYResolution="56907257/32768"
   exif:FocalPlaneResolutionUnit="3"
   exif:DateTimeOriginal="2024-11-02T08:59:47.72+07:00"
   exif:PixelXDimension="6240"
   exif:PixelYDimension="4160"
   aux:SerialNumber="558021001455"
   aux:LensInfo="85/1 85/1 0/0 0/0"
   aux:Lens="VILTROX AF 85/1.8 RF"
   aux:LensID="497"
   aux:LensSerialNumber="0000100001"
   aux:ImageNumber="0"
   aux:ApproximateFocusDistance="451/100"
   aux:FlashCompensation="0/1"
   aux:Firmware="1.6.1"
   exifEX:LensModel="VILTROX AF 85/1.8 RF"
   photoshop:DateCreated="2024-11-02T08:59:47.72+07:00"
   photoshop:SidecarForExtension="CR3"
   photoshop:EmbeddedXMPDigest="8E789E7EF970993BD5F007AC2476590A"
   xmpMM:DocumentID="BE9FEB039D204E3B60C3B3408084ED69"
   xmpMM:PreservedFileName="IMG_0300.CR3"
   xmpMM:OriginalDocumentID="BE9FEB039D204E3B60C3B3408084ED69"
   xmpMM:InstanceID="xmp.iid:2f4a15da-b8bb-a14a-b5eb-038372e6e1a3"
   dc:format="image/x-canon-cr3"
   crd:CameraProfile="Camera Standard"
   crd:LookName=""
   xmpDM:pick="0"
   crs:Version="17.0"
   crs:ProcessVersion="15.4"
   crs:WhiteBalance="As Shot"
   crs:Temperature="5150"
   crs:Tint="+15"
   crs:Exposure2012="0.00"
   crs:Contrast2012="0"
   crs:Highlights2012="-100"
   crs:Shadows2012="0"
   crs:Whites2012="0"
   crs:Blacks2012="0"
   crs:Texture="0"
   crs:Clarity2012="-30"
   crs:Dehaze="0"
   crs:ParametricShadows="0"
   crs:ParametricDarks="0"
   crs:ParametricLights="0"
   crs:ParametricHighlights="0"
   crs:ParametricShadowSplit="25"
   crs:ParametricMidtoneSplit="50"
   crs:ParametricHighlightSplit="75"
   crs:Sharpness="40"
   crs:SharpenRadius="+1.0"
   crs:SharpenDetail="25"
   crs:SharpenEdgeMasking="0"
   crs:LuminanceSmoothing="0"
   crs:ColorNoiseReduction="25"
   crs:ColorNoiseReductionDetail="50"
   crs:ColorNoiseReductionSmoothness="50"
   crs:GrayMixerRed="0"
   crs:GrayMixerOrange="0"
   crs:GrayMixerYellow="+100"
   crs:GrayMixerGreen="+100"
   crs:GrayMixerAqua="+50"
   crs:GrayMixerBlue="0"
   crs:GrayMixerPurple="0"
   crs:GrayMixerMagenta="0"
   crs:SplitToningShadowHue="0"
   crs:SplitToningShadowSaturation="0"
   crs:SplitToningHighlightHue="0"
   crs:SplitToningHighlightSaturation="0"
   crs:SplitToningBalance="0"
   crs:ColorGradeMidtoneHue="0"
   crs:ColorGradeMidtoneSat="0"
   crs:ColorGradeShadowLum="0"
   crs:ColorGradeMidtoneLum="0"
   crs:ColorGradeHighlightLum="0"
   crs:ColorGradeBlending="50"
   crs:ColorGradeGlobalHue="0"
   crs:ColorGradeGlobalSat="0"
   crs:ColorGradeGlobalLum="0"
   crs:AutoLateralCA="1"
   crs:LensProfileEnable="0"
   crs:LensManualDistortionAmount="0"
   crs:VignetteAmount="0"
   crs:PerspectiveUpright="0"
   crs:PerspectiveVertical="0"
   crs:PerspectiveHorizontal="0"
   crs:PerspectiveRotate="0.0"
   crs:PerspectiveAspect="0"
   crs:PerspectiveScale="100"
   crs:PerspectiveX="0.00"
   crs:PerspectiveY="0.00"
   crs:GrainAmount="0"
   crs:PostCropVignetteAmount="0"
   crs:ShadowTint="0"
   crs:RedHue="0"
   crs:RedSaturation="0"
   crs:GreenHue="0"
   crs:GreenSaturation="0"
   crs:BlueHue="0"
   crs:BlueSaturation="0"
   crs:HDREditMode="0"
   crs:ConvertToGrayscale="True"
   crs:OverrideLookVignette="False"
   crs:ToneCurveName2012="Strong Contrast"
   crs:CameraProfile="Adobe Standard"
   crs:CameraProfileDigest="4C4B5CC261F1A8A0E88F2C3E72DC47DA"
   crs:ToggleStyleDigest="A12E90FFF076A7834813047F663BE8C1"
   crs:ToggleStyleAmount="1"
   crs:HasSettings="True"
   crs:AlreadyApplied="False"
   crs:RawFileName="Raw-625.CR3">
   <exif:ISOSpeedRatings>
    <rdf:Seq>
     <rdf:li>100</rdf:li>
    </rdf:Seq>
   </exif:ISOSpeedRatings>
   <exif:Flash
    exif:Fired="False"
    exif:Return="0"
    exif:Mode="0"
    exif:Function="False"
    exif:RedEyeMode="False"/>
   <xmpMM:History>
    <rdf:Seq>
     <rdf:li
      stEvt:action="saved"
      stEvt:instanceID="xmp.iid:2f4a15da-b8bb-a14a-b5eb-038372e6e1a3"
      stEvt:when="2024-12-09T13:08:18+07:00"
      stEvt:softwareAgent="Adobe Photoshop Lightroom Classic 14.0.1 (Windows)"
      stEvt:changed="/metadata"/>
    </rdf:Seq>
   </xmpMM:History>
   <crs:ToneCurvePV2012>
    <rdf:Seq>
     <rdf:li>0, 0</rdf:li>
     <rdf:li>32, 16</rdf:li>
     <rdf:li>64, 50</rdf:li>
     <rdf:li>128, 128</rdf:li>
     <rdf:li>192, 202</rdf:li>
     <rdf:li>255, 255</rdf:li>
    </rdf:Seq>
   </crs:ToneCurvePV2012>
   <crs:ToneCurvePV2012Red>
    <rdf:Seq>
     <rdf:li>0, 0</rdf:li>
     <rdf:li>255, 255</rdf:li>
    </rdf:Seq>
   </crs:ToneCurvePV2012Red>
   <crs:ToneCurvePV2012Green>
    <rdf:Seq>
     <rdf:li>0, 0</rdf:li>
     <rdf:li>255, 255</rdf:li>
    </rdf:Seq>
   </crs:ToneCurvePV2012Green>
   <crs:ToneCurvePV2012Blue>
    <rdf:Seq>
     <rdf:li>0, 0</rdf:li>
     <rdf:li>255, 255</rdf:li>
    </rdf:Seq>
   </crs:ToneCurvePV2012Blue>
   <crs:PointColors>
    <rdf:Seq>
     <rdf:li>-1.000000, -1.000000, -1.000000, -1.000000, -1.000000, -1.000000, -1.000000, -1.000000, -1.000000, -1.000000, -1.000000, -1.000000, -1.000000, -1.000000, -1.000000, -1.000000, -1.000000, -1.000000, -1.000000</rdf:li>
    </rdf:Seq>
   </crs:PointColors>
   <crs:Preset>
    <rdf:Description
     crs:Name="B&amp;W Infrared"
     crs:Amount="1"
     crs:Cluster="Adobe 1.3"
     crs:UUID="9ECA8E49DA584E6C820C424CAD3B7C7C"
     crs:SupportsMonochrome="false">
    <crs:Group>
     <rdf:Alt>
      <rdf:li xml:lang="x-default">B&amp;W</rdf:li>
     </rdf:Alt>
    </crs:Group>
    <crs:Parameters>
     <rdf:Description
      crs:Version="17.0"
      crs:ProcessVersion="15.4"
      crs:Contrast2012="0"
      crs:Highlights2012="-100"
      crs:Shadows2012="0"
      crs:Whites2012="0"
      crs:Blacks2012="0"
      crs:Clarity2012="-30"
      crs:GrayMixerRed="0"
      crs:GrayMixerOrange="0"
      crs:GrayMixerYellow="+100"
      crs:GrayMixerGreen="+100"
      crs:GrayMixerAqua="+50"
      crs:GrayMixerBlue="0"
      crs:GrayMixerPurple="0"
      crs:GrayMixerMagenta="0"
      crs:SplitToningShadowHue="0"
      crs:SplitToningShadowSaturation="0"
      crs:SplitToningHighlightHue="0"
      crs:SplitToningHighlightSaturation="0"
      crs:SplitToningBalance="0"
      crs:ColorGradeMidtoneHue="0"
      crs:ColorGradeMidtoneSat="0"
      crs:ColorGradeShadowLum="0"
      crs:ColorGradeMidtoneLum="0"
      crs:ColorGradeHighlightLum="0"
      crs:ColorGradeBlending="50"
      crs:ColorGradeGlobalHue="0"
      crs:ColorGradeGlobalSat="0"
      crs:ColorGradeGlobalLum="0"
      crs:ConvertToGrayscale="True"
      crs:ToneCurveName2012="Strong Contrast"
      crs:CameraProfile="Adobe Standard"
      crs:CameraProfileDigest="4C4B5CC261F1A8A0E88F2C3E72DC47DA">
     <crs:ToneCurvePV2012>
      <rdf:Seq>
       <rdf:li>0, 0</rdf:li>
       <rdf:li>32, 16</rdf:li>
       <rdf:li>64, 50</rdf:li>
       <rdf:li>128, 128</rdf:li>
       <rdf:li>192, 202</rdf:li>
       <rdf:li>255, 255</rdf:li>
      </rdf:Seq>
     </crs:ToneCurvePV2012>
     <crs:ToneCurvePV2012Red>
      <rdf:Seq>
       <rdf:li>0, 0</rdf:li>
       <rdf:li>255, 255</rdf:li>
      </rdf:Seq>
     </crs:ToneCurvePV2012Red>
     <crs:ToneCurvePV2012Green>
      <rdf:Seq>
       <rdf:li>0, 0</rdf:li>
       <rdf:li>255, 255</rdf:li>
      </rdf:Seq>
     </crs:ToneCurvePV2012Green>
     <crs:ToneCurvePV2012Blue>
      <rdf:Seq>
       <rdf:li>0, 0</rdf:li>
       <rdf:li>255, 255</rdf:li>
      </rdf:Seq>
     </crs:ToneCurvePV2012Blue>
     </rdf:Description>
    </crs:Parameters>
    </rdf:Description>
   </crs:Preset>
  </rdf:Description>
 </rdf:RDF>
</x:xmpmeta>
