Data/Xmp/Raw-2.xmp
<x:xmpmeta xmlns:x="adobe:ns:meta/" x:xmptk="Adobe XMP Core 7.0-c000 1.000000, 0000/00/00-00:00:00        ">
 <rdf:RDF xmlns:rdf="http://www.w3.org/1999/02/22-rdf-syntax-ns#">
  <rdf:Description rdf:about=""
    xmlns:xmp="http://ns.adobe.com/xap/1.0/"
    xmlns:tiff="http://ns.adobe.com/tiff/1.0/"
    xmlns:exif="http://ns.adobe.com/exif/1.0/"
    xmlns:aux="http://ns.adobe.com/exif/1.0/aux/"
    xmlns:exifEX="http://cipa.jp/exif/1.0/"
    xmlns:photoshop="http://ns.adobe.com/photoshop/1.0/"
    xmlns:xmpMM="http://ns.adobe.com/xap/1.0/mm/"
    xmlns:stEvt="http://ns.adobe.com/xap/1.0/sType/ResourceEvent#"
    xmlns:dc="http://purl.org/dc/elements/1.1/"
    xmlns:crd="http://ns.adobe.com/camera-raw-defaults/1.0/"
    xmlns:xmpDM="http://ns.adobe.com/xmp/1.0/DynamicMedia/"
    xmlns:crs="http://ns.adobe.com/camera-raw-settings/1.0/"
   xmp:ModifyDate="2024-10-14T07:47:31.41+07:00"
   xmp:CreateDate="2024-10-14T07:47:31.41+07:00"
   xmp:MetadataDate="2024-12-04T10:24:42+07:00"
   tiff:Make="Canon"
   tiff:Model="Canon EOS RP"
   tiff:Orientation="8"
   tiff:ImageWidth="6240"
   tiff:ImageLength="4160"
   exif:ExifVersion="0231"
   exif:ExposureTime="1/160"
   exif:ShutterSpeedValue="7321928/1000000"
   exif:FNumber="18/10"
   exif:ApertureValue="1695994/1000000"
   exif:ExposureProgram="1"
   exif:SensitivityType="2"
   exif:RecommendedExposureIndex="200"
   exif:ExposureBiasValue="0/1"
   exif:MaxApertureValue="175/100"
   exif:MeteringMode="5"
   exif:FocalLength="85/1"
   exif:CustomRendered="0"
   exif:ExposureMode="1"
   exif:WhiteBalance="1"
   exif:SceneCaptureType="0"
   exif:FocalPlaneXResolution="56907257/32768"
   exif:FocalPlaneYResolution="56907257/32768"
   exif:FocalPlaneResolutionUnit="3"
   exif:DateTimeOriginal="2024-10-14T07:47:31.41+07:00"
   exif:PixelXDimension="6240"
   exif:PixelYDimension="4160"
   aux:SerialNumber="558021001455"
   aux:LensInfo="85/1 85/1 0/0 0/0"
   aux:Lens="VILTROX AF 85/1.8 RF"
   aux:LensID="497"
   aux:LensSerialNumber="0000100001"
   aux:ImageNumber="0"
   aux:ApproximateFocusDistance="611/100"
   aux:FlashCompensation="0/1"
   aux:Firmware="1.6.1"
   exifEX:LensModel="VILTROX AF 85/1.8 RF"
   photoshop:DateCreated="2024-10-14T07:47:31.41+07:00"
   photoshop:SidecarForExtension="CR3"
   photoshop:EmbeddedXMPDigest="8E789E7EF970993BD5F007AC2476590A"
   xmpMM:DocumentID="F295402CCF3FC53DB28970850C2619F9"
   xmpMM:PreservedFileName="IMG_0002.CR3"
   xmpMM:OriginalDocumentID="F295402CCF3FC53DB28970850C2619F9"
   xmpMM:InstanceID="xmp.iid:4d0006e0-2827-fb4a-9ac2-26755cabf27f"
   dc:format="image/x-canon-cr3"
   crd:CameraProfile="Camera Standard"
   crd:LookName=""
   xmpDM:pick="0"
   crs:Version="17.0"
   crs:ProcessVersion="15.4"
   crs:WhiteBalance="As Shot"
   crs:Temperature="5350"
   crs:Tint="+15"
   crs:Exposure2012="+0.26"
   crs:Contrast2012="-10"
   crs:Highlights2012="-47"
   crs:Shadows2012="-5"
   crs:Whites2012="-37"
   crs:Blacks2012="-30"
   crs:Texture="-15"
   crs:Clarity2012="-10"
   crs:Dehaze="0"
   crs:Vibrance="+20"
   crs:Saturation="-5"
   crs:ParametricShadows="0"
   crs:ParametricDarks="+12"
   crs:ParametricLights="0"
   crs:ParametricHighlights="0"
   crs:ParametricShadowSplit="25"
   crs:ParametricMidtoneSplit="50"
   crs:ParametricHighlightSplit="75"
   crs:Sharpness="100"
   crs:SharpenRadius="+1.3"
   crs:SharpenDetail="30"
   crs:SharpenEdgeMasking="10"
   crs:LuminanceSmoothing="22"
   crs:LuminanceNoiseReductionDetail="50"
   crs:LuminanceNoiseReductionContrast="0"
   crs:ColorNoiseReduction="20"
   crs:ColorNoiseReductionDetail="50"
   crs:ColorNoiseReductionSmoothness="50"
   crs:HueAdjustmentRed="-10"
   crs:HueAdjustmentOrange="+15"
   crs:HueAdjustmentYellow="0"
   crs:HueAdjustmentGreen="+3"
   crs:HueAdjustmentAqua="0"
   crs:HueAdjustmentBlue="0"
   crs:HueAdjustmentPurple="0"
   crs:HueAdjustmentMagenta="0"
   crs:SaturationAdjustmentRed="+37"
   crs:SaturationAdjustmentOrange="-10"
   crs:SaturationAdjustmentYellow="-30"
   crs:SaturationAdjustmentGreen="-28"
   crs:SaturationAdjustmentAqua="-10"
   crs:SaturationAdjustmentBlue="-15"
   crs:SaturationAdjustmentPurple="-57"
   crs:SaturationAdjustmentMagenta="-13"
   crs:LuminanceAdjustmentRed="0"
   crs:LuminanceAdjustmentOrange="+22"
   crs:LuminanceAdjustmentYellow="+20"
   crs:LuminanceAdjustmentGreen="+1"
   crs:LuminanceAdjustmentAqua="0"
   crs:LuminanceAdjustmentBlue="+10"
   crs:LuminanceAdjustmentPurple="+58"
   crs:LuminanceAdjustmentMagenta="+12"
   crs:SplitToningShadowHue="231"
   crs:SplitToningShadowSaturation="0"
   crs:SplitToningHighlightHue="207"
   crs:SplitToningHighlightSaturation="0"
   crs:SplitToningBalance="0"
   crs:ColorGradeMidtoneHue="0"
   crs:ColorGradeMidtoneSat="0"
   crs:ColorGradeShadowLum="0"
   crs:ColorGradeMidtoneLum="0"
   crs:ColorGradeHighlightLum="+4"
   crs:ColorGradeBlending="50"
   crs:ColorGradeGlobalHue="0"
   crs:ColorGradeGlobalSat="0"
   crs:ColorGradeGlobalLum="0"
   crs:AutoLateralCA="1"
   crs:LensProfileEnable="1"
   crs:LensManualDistortionAmount="0"
   crs:VignetteAmount="0"
   crs:DefringePurpleAmount="0"
   crs:DefringePurpleHueLo="30"
   crs:DefringePurpleHueHi="70"
   crs:DefringeGreenAmount="10"
   crs:DefringeGreenHueLo="40"
   crs:DefringeGreenHueHi="81"
   crs:PerspectiveUpright="0"
   crs:PerspectiveVertical="0"
   crs:PerspectiveHorizontal="0"
   crs:PerspectiveRotate="0.0"
   crs:PerspectiveAspect="0"
   crs:PerspectiveScale="100"
   crs:PerspectiveX="0.00"
   crs:PerspectiveY="0.00"
   crs:GrainAmount="0"
   crs:PostCropVignetteAmount="0"
   crs:ShadowTint="0"
   crs:RedHue="0"
   crs:RedSaturation="-5"
   crs:GreenHue="0"
   crs:GreenSaturation="0"
   crs:BlueHue="0"
   crs:BlueSaturation="+15"
   crs:HDREditMode="0"
   crs:CurveRefineSaturation="100"
   crs:ConvertToGrayscale="False"
   crs:OverrideLookVignette="False"
   crs:ToneCurveName2012="Custom"
   crs:CameraProfile="Adobe Standard"
   crs:CameraProfileDigest="4C4B5CC261F1A8A0E88F2C3E72DC47DA"
   crs:LensProfileSetup="Custom"
   crs:LensProfileName="Adobe (Canon EF 35mm f/1.4 L USM)"
   crs:LensProfileFilename="Canon EOS 5D Mark II (Canon EF 35mm f1.4L USM) - RAW.lcp"
   crs:LensProfileDigest="F1C363E7DAE1506E3D29ABF4DEB73836"
   crs:LensProfileIsEmbedded="False"
   crs:LensProfileDistortionScale="100"
   crs:LensProfileVignettingScale="100"
   crs:HasSettings="True"
   crs:AlreadyApplied="False"
   crs:RawFileName="Raw-2.CR3">
   <exif:ISOSpeedRatings>
    <rdf:Seq>
     <rdf:li>200</rdf:li>
    </rdf:Seq>
   </exif:ISOSpeedRatings>
   <exif:Flash
    exif:Fired="False"
    exif:Return="0"
    exif:Mode="0"
    exif:Function="False"
    exif:RedEyeMode="False"/>
   <xmpMM:History>
    <rdf:Seq>
     <rdf:li
      stEvt:action="saved"
      stEvt:instanceID="xmp.iid:4d0006e0-2827-fb4a-9ac2-26755cabf27f"
      stEvt:when="2024-12-04T10:24:42+07:00"
      stEvt:softwareAgent="Adobe Photoshop Lightroom Classic 14.0.1 (Windows)"
      stEvt:changed="/metadata"/>
    </rdf:Seq>
   </xmpMM:History>
   <crs:ToneCurvePV2012>
    <rdf:Seq>
     <rdf:li>9, 0</rdf:li>
     <rdf:li>63, 62</rdf:li>
     <rdf:li>123, 132</rdf:li>
     <rdf:li>192, 192</rdf:li>
     <rdf:li>255, 255</rdf:li>
    </rdf:Seq>
   </crs:ToneCurvePV2012>
   <crs:ToneCurvePV2012Red>
    <rdf:Seq>
     <rdf:li>0, 0</rdf:li>
     <rdf:li>255, 255</rdf:li>
    </rdf:Seq>
   </crs:ToneCurvePV2012Red>
   <crs:ToneCurvePV2012Green>
    <rdf:Seq>
     <rdf:li>0, 0</rdf:li>
     <rdf:li>255, 255</rdf:li>
    </rdf:Seq>
   </crs:ToneCurvePV2012Green>
   <crs:ToneCurvePV2012Blue>
    <rdf:Seq>
     <rdf:li>0, 0</rdf:li>
     <rdf:li>244, 255</rdf:li>
    </rdf:Seq>
   </crs:ToneCurvePV2012Blue>
   <crs:PointColors>
    <rdf:Seq>
     <rdf:li>-1.000000, -1.000000, -1.000000, -1.000000, -1.000000, -1.000000, -1.000000, -1.000000, -1.000000, -1.000000, -1.000000, -1.000000, -1.000000, -1.000000, -1.000000, -1.000000, -1.000000, -1.000000, -1.000000</rdf:li>
    </rdf:Seq>
   </crs:PointColors>
  </rdf:Description>
 </rdf:RDF>
</x:xmpmeta>
